X:1
T:James Gibb editions
T:Jesu Redemptor omnium - Ravanello
T:#
%%score { 1 | 2 } 3
L:1/8
Q:1/4=176
M:2/2
K:Eb
V:1 treble nm="Soprano I" snm="S"
V:2 treble 
V:3 treble nm="Alto" snm="A"
V:1
"^Jesu  Redemptor omnium, op.66/4""^Oreste Ravanello\n (1871-1938)""^allegretto"!mf! E4 (F2 G2) | %1
w: Je- su Re-|
w: Me- men- to,|
w: ~Hunc a- stra,|
w: Je- su, *|
 B4 (A2 G2) | F4 A4 |"^," G8 | B4 c2 d2 | (e4 d2- d2) | c4 (c2 c2) |[M:2/2] (d6"^," d2) | %8
w: dem- ptor *|o- mni-|um,|quem lu- cis|an- te o-|ri- gi\- *|nem *|
w: re- rum *|Con- di-|tor,|no- stri quod|o- lim *|cor- po\- *|ris, *|
w: tel- lus, *|ae- quo-|ra,|hunce o- mne|quod * *|coe- lo sub-|est, sa-|
w: ti- bi sit|glo- ri-|a,|qui na- tus|es de *|Vir- gi\- *|ne, cum|
 d4 d2 f2 | e6 B2 | (c4 d4) |"^," e8 | e4 d2 c2 | B4 c4 | F4 (B2 A2) | !fermata!G8 || %16
w: pa- rem pa-|ter- nae|glo- ri-|ae|Pa- ter su-|pre- mus|e- di\- *|it.|
w: sa- cra- ta~ab|al- vo|Vir- gi-|nis|na- scen- do,|for- mam|sum pse\- *|ris.|
w: lu- tis Au-|cto- rem|no\- *|vae|no- vo sa-|lu- tat|can- ti\- *|co.|
w: Pa- tre, et|al- mo|Spi- ri-|tu,|in sem- pi-|ter- na|sae- cu\- *|la.|
[Q:1/4=160]"^poco meno"[Q:1/4=160] z8 | z8 |!ff! (B4 c2 d2 | e4 c4) | B8- | !fermata!B8 |] %22
w: ||A\- * *||men.||
w: ||||||
w: ||||||
w: ||||||
V:2
 E4 (F2 G2) | B4 (A2 G2) | F4 A4 |"^," G8 | G4 G2 G2 | ((G2 =A2) B2- B2) | B4 (=A2 A2) | %7
w: Je- su Re-|dem- ptor *|o- mni-|um,|quem lu- cis|an\- * te o-|ri- gi\- *|
w: Me- men- to,|re- rum *|Con- di-|tor,|no- stri quod|o\- * lim *|cor- po\- *|
w: ~Hunc a- stra,|tel- lus, *|ae- quo-|ra,|hunce o- mne|quod * * *|coe- lo sub-|
w: Je- su, *|ti- bi sit|glo- ri-|a,|qui na- tus|es * de *|Vir- gi\- *|
[M:2/2] (B6"^," B2) | B4 B2 B2 | (B2 A2) G4 | (A4 A4) |"^," G8 | G4 G2 A2 | G4 E4 | E4 D4 | %15
w: nem *|pa- rem pa-|ter\- * nae|glo- ri-|ae|Pa- ter su-|pre- mus|e- di-|
w: ris, *|sa- cra- ta~ab|al\- * vo|Vir- gi-|nis|na- scen- do,|for- mam|sum pse-|
w: est, sa-|lu- tis Au-|cto\- * rem|no\- *|vae|no- vo sa-|lu- tat|can- ti-|
w: ne, cum|Pa- tre, et|al\- * mo|Spi- ri-|tu,|in sem- pi-|ter- na|sae- cu-|
 !fermata!E8 ||!ff! (E4 F2 G2 | B4 A4) | G8 | (A8- | A4 G2 F2) | !fermata!G8 |] %22
w: it.|A\- * *||men,|A\-||men.|
w: ris.|||||||
w: co.|||||||
w: la.|||||||
V:3
 E4 (F2 G2) | B4 (A2 G2) | F4 A4 |"^," G8 | E4 E2 E2 | (C4 (D2 E2)) | F4 (F2 F2) | %7
w: Je- su Re-|dem- ptor *|o- mni-|um,|quem lu- cis|an- te o-|ri- gi\- *|
w: Me- men- to,|re- rum *|Con- di-|tor,|no- stri quod|o- lim *|cor- po\- *|
w: ~Hunc a- stra,|tel- lus, *|ae- quo-|ra,|hunce o- mne|quod * *|coe- lo sub-|
w: Je- su, *|ti- bi sit|glo- ri-|a,|qui na- tus|es de *|Vir- gi\- *|
[M:2/2] x6"^," B2 | B4 B2 A2 | (G2 F2) E4 | (A4 F4) |"^," C8 | C4 B,2 A,2 | E4 A,4 | B,4 B,4 | %15
w: |pa- rem pa-|ter\- * nae|glo- ri-|ae|Pa- ter su-|pre- mus|e- di-|
w: |sa- cra- ta~ab|al\- * vo|Vir- gi-|nis|na- scen- do,|for- mam|sum pse-|
w: sa-|lu- tis Au-|cto\- * rem|no\- *|vae|no- vo sa-|lu- tat|can- ti-|
w: cum|Pa- tre, et|al\- * mo|Spi- ri-|tu,|in sem- pi-|ter- na|sae- cu-|
 !fermata!E8 || z8 |!ff! (B,4 C2 D2 | E6 D2 | C4 A,4) | E8- | !fermata!E8 |] %22
w: it.||A\- * *|||men.||
w: ris.|||||||
w: co.|||||||
w: la.|||||||

